X:1
T:Title
%%score 1 ( 2 3 )
L:1/8
Q:1/4=68
M:6/8
K:Ab
V:1 treble nm="Strings 1, Soprano"
V:2 bass nm="Strings 1, Bass"
V:3 bass 
V:1
 [Ec][=D_c][E=c] [CE]2 [CE] | [DF]3 [DA]3 | [CE][EA][EA] [DG]2 [CA] | [DB]6 | %4
w: 1.~Can~ the~ Lord~ count~ you~|faith ful?~|Is~ your~ heart~ true~ to|day?~|
 [Ec][=D_c][E=c] [CE]2 [CE] | [DF]3 [FA]3 | [CE][EA][Ec] [Ec]2 [DB] | [CA]6 | %8
w: Is~ your~ life~ pure~ and~|ho ly?~|What~ does~ your~ con science~|say?~|
 [EB][EB][Ec] [EB]2 E | [Ec]2 [Ec] [Ec]3 | [EB][Ec][Ed] [Ec]2 A | [Ge]2 [Ae] [Be]3[Q:1/4=12] | %12
w: ||||
[Q:1/4=68] [Ae][Ad][Ec] [Ec]2 [_GA] | [FB]2 [FA] [DF]3 | [CE][EA][Ec] [Ec]2 [CA] | [DB]3 [CA]3 |] %16
w: ||||
V:2
 [A,,A,][A,,A,][A,,A,] [A,,A,]2 [A,,A,] | [D,A,]3 [D,F,]3 | [A,,A,][C,A,][C,A,] [B,,E,]2 [A,,A,] | %3
 [E,G,]6 | [A,,A,][A,,A,][A,,A,] [A,,A,]2 [A,,A,] | [D,A,]3 [D,A,]3 | %6
 [E,A,][E,C][E,A,] [E,A,]2 [E,G,] | [A,,A,]6 | [E,G,][E,G,][E,A,] [E,G,]2 [E,G,] | %9
 A,-[C,A,][E,A,] A,3 | [E,G,][E,A,][E,B,] A,2 [F,B,] | [E,B,]2 [F,B,] [G,B,]3 | %12
 [A,C][A,B,]A, A,2 [A,C] | [D,D]2 [D,D] [D,A,]3 | [E,A,][E,C][E,A,] [E,A,]2 [E,A,] | %15
 [E,G,]3 [A,,A,]3 |] %16
V:3
 x6 | x6 | x6 | x6 | x6 | x6 | x6 | x6 | x6 | .A,,3 z3 | x6 | x6 | x6 | x6 | x6 | x6 |] %16

